!!!COA: Josquin des Prez
!!!CDT: ~1450-1521/08/27
!!!OTL@@FRA: Helas madame
!!!AGN: Chanson
!!!SCT: NJE 27.13
!!!SCA: New Josquin Edition 27.13
!!!voices: 3
**kern	**kern	**kern
*staff3	*staff2	*staff1
*Ivox	*Ivox	*Ivox
*I"Bassus	*I"Tenor	*I"Superius
*I'B	*I'T	*I'S
*clefF4	*clefGv2	*clefG2
*k[]	*k[]	*k[]
*M2/1	*M2/1	*M2/1
*met(C|)	*met(C|)	*met(C|)
=1-	=1-	=1-
0D	0r	0r
=2	=2	=2
1E	0r	0r
1E	.	.
=3	=3	=3
1.F	0D	0r
4E\	.	.
4D\	.	.
=4	=4	=4
1C	1E	0r
1C	1E	.
=5	=5	=5
0D	1.F	0d
.	4E/	.
.	4D/	.
=6	=6	=6
1AA	1C	1e
1C	1C	1e
=7	=7	=7
0BB-	0D	1.f
.	.	4e/
.	.	4d/
=8	=8	=8
0AA	1E	1c
.	[1F	1c
=9	=9	=9
1D	1F]	1d
[1C	[1G	[1e
=10	=10	=10
2C/]	2G/]	2e/]
2D\	2F/	2d/
1BB-i	1D	[1d
=11	=11	=11
0AA	0E	1d]
.	.	1c#i
=12	=12	=12
0A	0D	[0d
=13	=13	=13
1B	0r	0d]
1B	.	.
=14	=14	=14
1.c	0A	0r
4B\	.	.
4A\	.	.
=15	=15	=15
1G	1B	0r
1G	1B	.
=16	=16	=16
0A	1.c	0a
.	4B\	.
.	4A/	.
=17	=17	=17
1E	1G	1b
1G	1G	1b
=18	=18	=18
0F	0A	1.cc
.	.	4b\
.	.	4a/
=19	=19	=19
0E	1B	1g
.	[1c	1g
=20	=20	=20
1A	1c]	1a
1G	[1d	[1b
=21	=21	=21
0F	2d\]	2b\]
.	2c\	2a/
.	1A	[1a
=22	=22	=22
0E	0B	1a]
.	.	1g#i
=23	=23	=23
1r	0A	[0a
1F	.	.
=24	=24	=24
1D	1r	0a]
1F	1D	.
=25	=25	=25
0E	1E	0r
.	1G	.
=26	=26	=26
0D	0F	1r
.	.	1d
=27	=27	=27
1r	0E	1e
1C	.	1g
=28	=28	=28
0D	1r	0f
.	[1D	.
=29	=29	=29
0AA	1D]	0e
.	1C	.
=30	=30	=30
0r	1D	1r
.	1F	[1d
=31	=31	=31
0AA	0E	1d]
.	.	1c
=32	=32	=32
0D	1r	1d
.	[1A	[1f
=33	=33	=33
1AA	1A]	2f/]
.	.	2e/
1C	1G	[1e
=34	=34	=34
0D	0F	1e]
.	.	1d
=35	=35	=35
1r	0E	0e
1G	.	.
=36	=36	=36
2F\	1A	0r
2D\	.	.
1E	1G	.
=37	=37	=37
2D\	2F/	1a
2F\	2D/	.
1C	1E	1g
=38	=38	=38
1D	1D	2f/
.	.	2d/
1AA	1C	1e
=39	=39	=39
0BB-i	1F	1d
.	1G	1d
=40	=40	=40
0AA	0A	1c
.	.	1c
=41	=41	=41
1D	1F	1d
1C	[1G	[1e
=42	=42	=42
0BB-	2G/]	2e/]
.	2F/	2d/
.	1D	[1d
=43	=43	=43
0AA	0E	2d/]
.	.	4c#i/
.	.	4B/
.	.	1c#i
=44	=44	=44
0Al	0Dl	0dl
!!LO:LB:g=z
=45||	=45||	=45||
0r	0D	0r
=46	=46	=46
0r	1F	0r
.	1G	.
=47	=47	=47
0r	0A	1r
.	.	1e
=48	=48	=48
1D	1r	0f
[1D	1A	.
=49	=49	=49
1D]	0A	1r
1r	.	1e
=50	=50	=50
1D	1r	0f
1D	1A	.
=51	=51	=51
2.AA/	1A	1e
4BB/	.	.
2C/	2G/	2e/
2D\	2F/	[2f/
=52	=52	=52
1BB	1D	2f/]
.	.	4e/
.	.	4d/
1AA	1E	1c#i
=53	=53	=53
1r	[0D	0d
1A	.	.
=54	=54	=54
0A	0D]	1r
.	.	1a
=55	=55	=55
1r	1r	0a
1D	1d	.
=56	=56	=56
0D	0d	1r
.	.	1f
=57	=57	=57
1r	1B	1g
1A	1c	1e
=58	=58	=58
2D\	1d	1f
2F\	.	.
2E\	2e\	2g/
[2D\	[2f\	[2a/
=59	=59	=59
4D\]	2f\]	2a/]
4E\	.	.
4F\	4e\	4g/
4G\	4d\	4f/
1A	1c#i	1e
=60	=60	=60
0D	1d	0d
.	1D	.
=61	=61	=61
1r	0E	1r
1AA	.	1c
=62	=62	=62
0BB-	1r	0d
.	1D	.
=63	=63	=63
1r	0E	1r
1AA	.	1c
=64	=64	=64
0BB-i	1r	0d
.	1D	.
=65	=65	=65
0AA	1E	1r
.	2E/	1c
.	[2F/	.
=66	=66	=66
0r	2F/]	1f
.	4E/	.
.	4D/	.
.	1C	2g/
.	.	[2a/
=67	=67	=67
0r	1F	4a/]
.	.	4g/
.	.	2a/
.	2G/	2b\
.	[2A/	[2cc\
=68	=68	=68
0r	2A/]	4cc\]
.	.	4b\
.	2c\	1a
.	1B	.
.	.	2g#i/
=69	=69	=69
1r	1A	0a
1AA	1A	.
=70	=70	=70
1BB-i	1F	1r
1BB-i	1G	1d
=71	=71	=71
1AA	2.A/	1c
.	4G/	.
1AA	1E	1c
=72	=72	=72
1BB-i	1D	1d
1C	1r	1e
=73	=73	=73
1.D	1A	1.f
.	2F/	.
[2C/	[2G/	[2e/
=74	=74	=74
4C/]	4G/]	4e/]
4D\	4F/	4d/
2BB-i/	2D/	1d
1AA	1E	.
.	.	2c#i/
=75	=75	=75
1r	0D	[0d
1D	.	.
=76	=76	=76
[0D	1r	0d]
.	1d	.
=77	=77	=77
0D]	0d	1r
.	.	1a
=78	=78	=78
1D	1r	0a
1F	1A	.
=79	=79	=79
1E	1G	1r
1D	1F	1a
=80	=80	=80
1r	1E	1g
1F	1A	1f
=81	=81	=81
1C	2G/	1e
.	2E/	.
1D	1F	1a
=82	=82	=82
2E\	1E	2g/
2C/	.	2e/
1D	1r	1f
=83	=83	=83
[0AA	1r	0e
.	1A	.
=84	=84	=84
0AA]	0c	1r
.	.	1e
=85	=85	=85
1r	1r	0g
1E	1G	.
=86	=86	=86
0E	0B	1r
.	.	1g
=87	=87	=87
1r	1r	0a
1F	1A	.
=88	=88	=88
1G	1B	1r
1G	1B	1d
=89	=89	=89
1C	1c	1e
1E	1c	1e
=90	=90	=90
1D	1d	1f
2r	2e\	2g/
[2D\	[2f\	[2a/
=91	=91	=91
4D\]	2f\]	2a/]
4E\	.	.
4F\	4e\	4g/
4G\	4d\	4f/
1A	1c#i	1e
=92	=92	=92
[0D	[0d	0d
=93	=93	=93
0D_	0d]	1r
.	.	1a
=94	=94	=94
0D]	1r	1a
.	1A	1a
=95	=95	=95
1r	[0c	2g/
.	.	1a
1A	.	.
.	.	4g/
.	.	4f/
=96	=96	=96
[0A	0c]	0e
=97	=97	=97
0A]	1r	1r
.	1A	1a
=98	=98	=98
0r	0c	1a
.	.	2g/
.	.	[2a/
=99	=99	=99
2.AA/	1c	2a/]
.	.	4g/
4BB/	.	4f/
2.C/	1c	2.e/
4D\	.	4f/
=100	=100	=100
2E\	2B\	2g/
2F\	2A/	1a
1E	1B	.
.	.	2g#i/
=101	=101	=101
0F	0A	[0a
=102	=102	=102
[0D	1r	0a]
.	1d	.
=103	=103	=103
0D]	0d	1r
.	.	1d
=104	=104	=104
1A	1r	0e
[1A	1A	.
=105	=105	=105
1A]	0A	0r
1r	.	.
=106	=106	=106
1AA	1A	1e
1D	[1A	1f
=107	=107	=107
2C/	1A]	2e/
1D	.	1f
.	1D	.
4C/	.	4e/
4BB/	.	4d/
=108	=108	=108
[0AA	2.A/	2.c/
.	4B\	4d/
.	2c\	2e/
.	[2A/	[2f/
=109	=109	=109
0AA]	2A/]	2f/]
.	4G/	4e/
.	4F/	4d/
.	1E	1c#i
=110	=110	=110
1r	0D	[0d
1D	.	.
=111	=111	=111
[0D	1r	0d]
.	1D	.
=112	=112	=112
0D]	0F	1r
.	.	1A
=113	=113	=113
1r	1r	0c
1AA	1E	.
=114	=114	=114
1AA	1F	1c
1BB	1F	1d
=115	=115	=115
1GG	1G	1d
[1C	1G	1e
=116	=116	=116
1C]	1A	1e
1D	1A	1f
=117	=117	=117
2E\	2G/	2g/
2F\	1c	1a
1D	.	.
.	2B\	4g/
.	.	4f/
=118	=118	=118
0C;	0c;	0e;
=119	=119	=119
0r	0r	0r
=120	=120	=120
0AA	0c	1.e
.	.	2f/
=121	=121	=121
1E	1B	1g
1E	1B	1g
=122	=122	=122
1F	1A	1a
1F	1A	1a
=123	=123	=123
1F	1c	1a
1F	1d	1a
=124	=124	=124
1E	1e	2.g/
.	.	4a/
2r	2d\	2b\
[2AA/	[2e\	[2cc\
=125	=125	=125
4AA/]	2e\]	2cc\]
4BB/	.	.
4C/	4d\	4b\
4D\	4c\	4a/
1E	1B	1g#i
=126	=126	=126
0AA	0A	0a
=127	=127	=127
1r	1r	1r
1F	1A	1a
=128	=128	=128
2E\	1c	2g/
1F	.	1a
.	1c	.
4E\	.	4g/
4D\	.	4f/
=129	=129	=129
0C	1.c	1e
.	.	1e
.	2B\	.
=130	=130	=130
0r	1A	1e
.	2G/	2e/
.	[2A/	[2f/
=131	=131	=131
0r	4A/]	4f/]
.	4G/	4e/
.	4F/	4d/
.	4E/	4c/
.	1F	1d
=132	=132	=132
1r	0E	[0e
1AA	.	.
=133	=133	=133
0AA	1r	0e]
.	1A	.
=134	=134	=134
1r	0A	1r
1AA	.	1c
=135	=135	=135
0BB-	1r	0d
.	1D	.
=136	=136	=136
1r	0E	1r
1AA	.	1c
=137	=137	=137
0BB-	1r	0d
.	1D	.
=138	=138	=138
1D	1F	1r
2.C/	1G	1e
4BB-i/	.	.
=139	=139	=139
1AA	1A	1f
2GG/	2B\	2g/
2FF/	[2c\	[2a/
=140	=140	=140
2AA/	2c\]	2a/]
2BB/	4B\	4g/
.	4A/	4f/
2C/	2G/	2e/
[2FF/	[2A/	[2f/
=141	=141	=141
2FF/]	2A/]	2f/]
2GG/	4G/	4e/
.	4F/	4d/
1AA	1E	1c#i
=142	=142	=142
1r	[0Dl	[0dl
1D	.	.
=143	=143	=143
0Dl	0D]	0d]
==	==	==
*-	*-	*-
!!!RDF**kern: l=long note in original notation
!!!RDF**kern: i=editorial accidental
!!!ENC: Jesse Rodin; Victoria Chang 2011/05/30
!!!END: 2011/05/30/
!!!EED: Jesse Rodin
!!!EEV: 2011/08/15/
!!attribution-level@Jos: 3 (tricky)
!!!ONB: Translated from MusicXML and edited on 2011/08/15/ by Craig Sapp
!!muse2ps:  C^@{COM}{/}@{COA}?\n@{SCT}^v100,100,150I150Q16
